; generated by Slic3r Prusa Edition 1.42.0-alpha3+win64 on 2019-02-01 at 23:30:11

; 

; external perimeters extrusion width = 0.45mm
; perimeters extrusion width = 0.45mm
; infill extrusion width = 0.45mm
; solid infill extrusion width = 0.45mm
; top infill extrusion width = 0.40mm
; first layer extrusion width = 0.60mm

M201 X9000 Y9000 Z500 E10000 ; sets maximum accelerations, mm/sec^2
M203 X500 Y500 Z5 E25 ; sets maximum feedrates, mm/sec
M204 P1500 R1500 T1500 ; sets acceleration (P, T) and retract acceleration (R), mm/sec^2
M205 X10.00 Y10.00 Z0.30 E5.00 ; sets the jerk limits, mm/sec
M205 S0 T0 ; sets the minimum extruding and travel feed rate, mm/sec
M107
; Ender 3 Custom Start G-code
M140 S70       ; start heating bed
M104 S235     ; start heating extruder
G28         					 ; home axis while heating
M420 S1                          ; enable BL mesh
;G1 Z10 F3000                  ; Move Z Axis up little to prevent scratching of Heat Bed
G1 X0.1 Y20 Z10 F5000.0         ; Move to start position
M190 S70       ; wait for bed
;G1 F1000 E-3                          ; retract to avoid oozing
;G29                                   ; ABL not neccessery every print
M109 S235     ; wait for extruder
G92 E0                           ; Reset Extruder
G1 Z0.3 F3000                  ; Move to start position
G1 X0.1 Y200.0 Z0.3 F1500.0 E15  ; Draw the first line
G1 X0.4 Y200.0 Z0.3 F5000.0      ; Move to side a little
G1 X0.4 Y20 Z0.3 F1500.0 E30     ; Draw the second line
G92 E0                           ; Reset Extruder
G1 Z12.40 F3000                    ; Move Z Axis up little to prevent scratching of Heat Bed
; End of Custom Start G-code
; Filament gcode
G21 ; set units to millimeters
G90 ; use absolute coordinates
M82 ; use absolute distances for extrusion
G92 E0
;LAYER:0
G1 Z0.300 F7800.000
G1 E-6.00000 F3600.00000
G92 E0
G1 Z1.300 F7800.000
G1 X92.149 Y96.807
G1 Z0.300
G1 E6.00000 F3600.00000
M204 S500
G1 F600
G1 X93.426 Y96.661 E6.08587
G1 X139.506 Y96.661 E9.16424
G1 X140.663 Y96.769 E9.24184
G1 X141.786 Y97.088 E9.31985
G1 X142.832 Y97.607 E9.39786
G1 X143.760 Y98.306 E9.47546
G1 X144.545 Y99.162 E9.55306
G1 X145.163 Y100.152 E9.63107
G1 X145.588 Y101.233 E9.70867
G1 X145.809 Y102.380 E9.78668
G1 X145.839 Y117.031 E10.76544
G1 X145.735 Y118.144 E10.84014
G1 X145.275 Y119.613 E10.94294
G1 X144.479 Y120.923 E11.04533
G1 X143.388 Y122.007 E11.14813
G1 X142.067 Y122.796 E11.25093
G1 X140.845 Y123.195 E11.33680
G1 X139.567 Y123.339 E11.42267
G1 X93.127 Y123.328 E14.52513
G1 X92.270 Y123.219 E14.58285
G1 X91.430 Y122.992 E14.64098
G1 X90.635 Y122.654 E14.69869
G1 X89.887 Y122.209 E14.75682
G1 X89.213 Y121.669 E14.81454
G1 X88.614 Y121.038 E14.87267
G1 X88.110 Y120.336 E14.93038
G1 X87.704 Y119.567 E14.98851
G1 X87.316 Y118.393 E15.07108
G1 X87.163 Y117.173 E15.15322
G1 X87.161 Y102.975 E16.10172
G1 X87.226 Y102.095 E16.16068
G1 X87.390 Y101.310 E16.21425
G1 X87.650 Y100.558 E16.26740
G1 X88.005 Y99.839 E16.32097
G1 X88.448 Y99.171 E16.37454
G1 X88.972 Y98.564 E16.42811
G1 X89.568 Y98.028 E16.48168
G1 X90.228 Y97.571 E16.53525
G1 X90.933 Y97.204 E16.58840
G1 X92.092 Y96.825 E16.66985
M204 S800
G1 E10.66985 F3600.00000
G92 E0
G1 Z1.300 F7800.000
G1 X89.500 Y99.000
G1 X89.927 Y98.427
G1 Z0.300
G1 E6.00000 F3600.00000
M204 S500
G1 F600
G1 X91.204 Y97.670 E6.09913
G1 X92.296 Y97.323 E6.17574
G1 X93.442 Y97.197 E6.25275
G1 X139.506 Y97.197 E9.33005
G1 X140.571 Y97.296 E9.40151
G1 X141.600 Y97.590 E9.47298
G1 X142.557 Y98.067 E9.54444
G1 X143.415 Y98.716 E9.61631
G1 X144.135 Y99.507 E9.68777
G1 X144.697 Y100.417 E9.75924
G1 X145.084 Y101.421 E9.83110
G1 X145.279 Y102.473 E9.90257
G1 X145.303 Y117.024 E10.87465
G1 X145.216 Y118.001 E10.94018
G1 X144.796 Y119.374 E11.03615
G1 X144.054 Y120.598 E11.13172
G1 X143.035 Y121.602 E11.22730
G1 X141.796 Y122.330 E11.32327
G1 X140.704 Y122.677 E11.39989
G1 X139.558 Y122.803 E11.47689
G1 X93.173 Y122.794 E14.57565
G1 X92.376 Y122.694 E14.62928
G1 X91.601 Y122.484 E14.68292
G1 X90.863 Y122.170 E14.73655
G1 X90.175 Y121.756 E14.79018
G1 X89.550 Y121.252 E14.84382
G1 X89.001 Y120.666 E14.89745
G1 X88.538 Y120.010 E14.95108
G1 X88.170 Y119.296 E15.00471
G1 X87.830 Y118.238 E15.07895
G1 X87.698 Y117.141 E15.15279
G1 X87.697 Y102.982 E16.09868
G1 X87.753 Y102.193 E16.15152
G1 X88.145 Y100.762 E16.25065
G1 X88.888 Y99.478 E16.34978
G1 X89.885 Y98.469 E16.44450
M204 S800
G1 X90.264 Y98.848 F7800.000
M204 S500
G1 F600
G1 X91.466 Y98.141 E16.53765
G1 X92.440 Y97.840 E16.60573
G1 X93.453 Y97.732 E16.67381
G1 X139.506 Y97.732 E19.75038
G1 X140.475 Y97.823 E19.81544
G1 X141.417 Y98.093 E19.88088
G1 X142.287 Y98.530 E19.94594
G1 X143.067 Y99.123 E20.01138
G1 X143.723 Y99.851 E20.07682
G1 X144.230 Y100.682 E20.14188
G1 X144.576 Y101.592 E20.20694
G1 X144.749 Y102.557 E20.27238
G1 X144.768 Y117.017 E21.23842
G1 X144.697 Y117.864 E21.29518
G1 X144.317 Y119.131 E21.38359
G1 X143.631 Y120.269 E21.47237
G1 X142.681 Y121.199 E21.56115
G1 X141.534 Y121.859 E21.64956
G1 X140.560 Y122.160 E21.71764
G1 X139.547 Y122.268 E21.78572
G1 X93.217 Y122.260 E24.88084
G1 X92.486 Y122.169 E24.93004
G1 X91.775 Y121.977 E24.97925
G1 X91.097 Y121.688 E25.02845
G1 X90.462 Y121.304 E25.07804
G1 X89.892 Y120.838 E25.12724
G1 X89.392 Y120.297 E25.17645
G1 X88.972 Y119.692 E25.22565
G1 X88.641 Y119.034 E25.27485
G1 X88.347 Y118.094 E25.34067
G1 X88.233 Y117.115 E25.40649
G1 X88.280 Y102.293 E26.39666
G1 X88.636 Y100.978 E26.48770
G1 X89.321 Y99.793 E26.57911
G1 X90.222 Y98.891 E26.66433
M204 S800
; PURGING FINISHED
G1 E20.66433 F3600.00000
G92 E0
G1 Z1.300 F7800.000
G1 X138.129 Y115.629
G1 Z0.300
G1 E6.00000 F3600.00000
M204 S500
G1 F600
G1 X94.871 Y115.629 E8.88984
G1 X94.871 Y104.371 E9.64190
G1 X138.129 Y104.371 E12.53174
G1 X138.129 Y115.569 E13.27979
M204 S800
G1 X138.664 Y116.164 F7800.000
M204 S500
G1 F600
G1 X94.336 Y116.164 E16.24119
G1 X94.336 Y103.836 E17.06482
G1 X138.664 Y103.836 E20.02622
G1 X138.664 Y116.104 E20.84584
M204 S800
G1 X139.200 Y116.700 F7800.000
M204 S500
G1 F600
G1 X93.800 Y116.700 E23.87881
G1 X93.800 Y103.300 E24.77400
G1 X139.200 Y103.300 E27.80697
G1 X139.200 Y116.640 E28.69815
M204 S800
G1 X138.802 Y116.662 F7800.000
G1 E22.69815 F3600.00000
G92 E0
G1 Z1.300 F7800.000
G1 X137.968 Y105.619
G1 Z0.300
G1 E6.00000 F3600.00000
M204 S500
G1 F600
G1 X137.122 Y104.773 E6.08021
G1 X136.362 Y104.773 E6.13119
G1 X137.727 Y106.138 E6.26064
G1 X137.727 Y106.898 E6.31162
G1 X135.602 Y104.773 E6.51316
G1 X134.841 Y104.773 E6.56414
G1 X137.727 Y107.659 E6.83778
G1 X137.727 Y108.419 E6.88875
G1 X134.081 Y104.773 E7.23448
G1 X133.321 Y104.773 E7.28546
G1 X137.727 Y109.179 E7.70329
G1 X137.727 Y109.939 E7.75426
G1 X132.561 Y104.773 E8.24418
G1 X131.800 Y104.773 E8.29516
G1 X137.727 Y110.700 E8.85717
G1 X137.727 Y111.460 E8.90815
G1 X131.040 Y104.773 E9.54225
G1 X130.280 Y104.773 E9.59323
G1 X137.727 Y112.220 E10.29943
G1 X137.727 Y112.981 E10.35040
G1 X129.519 Y104.773 E11.12870
G1 X128.759 Y104.773 E11.17967
G1 X137.727 Y113.741 E12.03006
G1 X137.727 Y114.501 E12.08103
G1 X127.999 Y104.773 E13.00351
G1 X127.239 Y104.773 E13.05449
G1 X137.693 Y115.227 E14.04581
G1 X136.933 Y115.227 E14.09679
G1 X126.478 Y104.773 E15.08811
G1 X125.718 Y104.773 E15.13909
G1 X136.172 Y115.227 E16.13040
G1 X135.412 Y115.227 E16.18138
G1 X124.958 Y104.773 E17.17270
G1 X124.198 Y104.773 E17.22368
G1 X134.652 Y115.227 E18.21500
G1 X133.891 Y115.227 E18.26598
G1 X123.437 Y104.773 E19.25730
G1 X122.677 Y104.773 E19.30827
G1 X133.131 Y115.227 E20.29959
G1 X132.371 Y115.227 E20.35057
G1 X121.917 Y104.773 E21.34189
G1 X121.156 Y104.773 E21.39287
G1 X131.611 Y115.227 E22.38419
G1 X130.850 Y115.227 E22.43517
G1 X120.396 Y104.773 E23.42649
G1 X119.636 Y104.773 E23.47746
G1 X130.090 Y115.227 E24.46878
G1 X129.330 Y115.227 E24.51976
G1 X118.876 Y104.773 E25.51108
G1 X118.115 Y104.773 E25.56206
G1 X128.569 Y115.227 E26.55338
G1 X127.809 Y115.227 E26.60436
G1 X117.355 Y104.773 E27.59568
G1 X116.595 Y104.773 E27.64665
G1 X127.049 Y115.227 E28.63797
G1 X126.289 Y115.227 E28.68895
G1 X115.835 Y104.773 E29.68027
G1 X115.074 Y104.773 E29.73125
G1 X125.528 Y115.227 E30.72257
G1 X124.768 Y115.227 E30.77355
G1 X114.314 Y104.773 E31.76487
G1 X113.554 Y104.773 E31.81584
G1 X124.008 Y115.227 E32.80716
G1 X123.248 Y115.227 E32.85814
G1 X112.793 Y104.773 E33.84946
G1 X112.033 Y104.773 E33.90044
G1 X122.487 Y115.227 E34.89176
G1 X121.727 Y115.227 E34.94274
G1 X111.273 Y104.773 E35.93405
G1 X110.513 Y104.773 E35.98503
G1 X120.967 Y115.227 E36.97635
G1 X120.206 Y115.227 E37.02733
G1 X109.752 Y104.773 E38.01865
G1 X108.992 Y104.773 E38.06963
G1 X119.446 Y115.227 E39.06095
G1 X118.686 Y115.227 E39.11192
G1 X108.232 Y104.773 E40.10324
G1 X107.472 Y104.773 E40.15422
G1 X117.926 Y115.227 E41.14554
G1 X117.165 Y115.227 E41.19652
G1 X106.711 Y104.773 E42.18784
G1 X105.951 Y104.773 E42.23882
G1 X116.405 Y115.227 E43.23014
G1 X115.645 Y115.227 E43.28111
G1 X105.191 Y104.773 E44.27243
G1 X104.430 Y104.773 E44.32341
G1 X114.885 Y115.227 E45.31473
G1 X114.124 Y115.227 E45.36571
G1 X103.670 Y104.773 E46.35703
G1 X102.910 Y104.773 E46.40801
G1 X113.364 Y115.227 E47.39933
G1 X112.604 Y115.227 E47.45030
G1 X102.150 Y104.773 E48.44162
G1 X101.389 Y104.773 E48.49260
G1 X111.843 Y115.227 E49.48392
G1 X111.083 Y115.227 E49.53490
G1 X100.629 Y104.773 E50.52622
G1 X99.869 Y104.773 E50.57720
G1 X110.323 Y115.227 E51.56852
G1 X109.563 Y115.227 E51.61949
G1 X99.108 Y104.773 E52.61081
G1 X98.348 Y104.773 E52.66179
G1 X108.802 Y115.227 E53.65311
G1 X108.042 Y115.227 E53.70409
G1 X97.588 Y104.773 E54.69541
G1 X96.828 Y104.773 E54.74639
G1 X107.282 Y115.227 E55.73771
G1 X106.522 Y115.227 E55.78868
G1 X96.067 Y104.773 E56.78000
G1 X95.307 Y104.773 E56.83098
G1 X105.761 Y115.227 E57.82230
G1 X105.001 Y115.227 E57.87328
G1 X95.273 Y105.499 E58.79575
G1 X95.273 Y106.259 E58.84672
G1 X104.241 Y115.227 E59.69710
G1 X103.480 Y115.227 E59.74808
G1 X95.273 Y107.020 E60.52636
G1 X95.273 Y107.780 E60.57734
G1 X102.720 Y115.227 E61.28353
G1 X101.960 Y115.227 E61.33450
G1 X95.273 Y108.540 E61.96860
G1 X95.273 Y109.300 E62.01958
G1 X101.200 Y115.227 E62.58158
G1 X100.439 Y115.227 E62.63256
G1 X95.273 Y110.061 E63.12246
G1 X95.273 Y110.821 E63.17344
G1 X99.679 Y115.227 E63.59126
G1 X98.919 Y115.227 E63.64223
G1 X95.273 Y111.581 E63.98796
G1 X95.273 Y112.341 E64.03893
G1 X98.159 Y115.227 E64.31256
G1 X97.398 Y115.227 E64.36354
G1 X95.273 Y113.102 E64.56507
G1 X95.273 Y113.862 E64.61605
G1 X96.638 Y115.227 E64.74549
G1 X95.878 Y115.227 E64.79647
G1 X95.032 Y114.381 E64.87667
M204 S800
;LAYER:1
G1 Z0.500 F7800.000
M140 S60 ; set bed temperature
; PURGING FINISHED
G1 X138.461 Y115.961
G1 F3600
G1 X94.539 Y115.961 E66.36337
G1 X94.539 Y104.039 E66.76690
G1 X138.461 Y104.039 E68.25360
G1 X138.461 Y115.901 E68.65511
G1 X138.868 Y116.368 F7800.000
G1 F3600
G1 X94.132 Y116.368 E70.16936
G1 X94.132 Y103.632 E70.60045
G1 X138.868 Y103.632 E72.11471
G1 X138.868 Y116.308 E72.54377
G1 X139.275 Y116.775 F7800.000
G1 F1800
G1 X93.725 Y116.775 E74.08558
G1 X93.725 Y103.225 E74.54424
G1 X139.275 Y103.225 E76.08605
G1 X139.275 Y116.715 E76.54267
G1 X138.877 Y116.737 F7800.000
G1 X137.513 Y115.839
G1 F2400
G1 X138.156 Y115.196 E76.57351
G1 X138.156 Y114.619 E76.59312
G1 X137.119 Y115.656 E76.64290
G1 X136.541 Y115.656 E76.66250
G1 X138.156 Y114.041 E76.74001
G1 X138.156 Y113.464 E76.75961
G1 X135.964 Y115.656 E76.86484
G1 X135.387 Y115.656 E76.88445
G1 X138.156 Y112.887 E77.01741
G1 X138.156 Y112.309 E77.03701
G1 X134.809 Y115.656 E77.19770
G1 X134.232 Y115.656 E77.21731
G1 X138.156 Y111.732 E77.40572
G1 X138.156 Y111.154 E77.42532
G1 X133.654 Y115.656 E77.64147
G1 X133.077 Y115.656 E77.66107
G1 X138.156 Y110.577 E77.90494
G1 X138.156 Y109.999 E77.92455
G1 X132.499 Y115.656 E78.19614
G1 X131.922 Y115.656 E78.21575
G1 X138.156 Y109.422 E78.51507
G1 X138.156 Y108.844 E78.53468
G1 X131.344 Y115.656 E78.86173
G1 X130.767 Y115.656 E78.88133
G1 X138.156 Y108.267 E79.23611
G1 X138.156 Y107.689 E79.25572
G1 X130.189 Y115.656 E79.63822
G1 X129.612 Y115.656 E79.65783
G1 X138.156 Y107.112 E80.06806
G1 X138.156 Y106.534 E80.08767
G1 X129.034 Y115.656 E80.52563
G1 X128.457 Y115.656 E80.54524
G1 X138.156 Y105.957 E81.01092
G1 X138.156 Y105.380 E81.03053
G1 X127.880 Y115.656 E81.52395
G1 X127.302 Y115.656 E81.54355
G1 X138.156 Y104.802 E82.06469
G1 X138.156 Y104.344 E82.08023
G1 X138.036 Y104.344 E82.08430
G1 X126.725 Y115.656 E82.62742
G1 X126.147 Y115.656 E82.64702
G1 X137.458 Y104.344 E83.19014
G1 X136.881 Y104.344 E83.20974
G1 X125.570 Y115.656 E83.75286
G1 X124.992 Y115.656 E83.77246
G1 X136.303 Y104.344 E84.31558
G1 X135.726 Y104.344 E84.33518
G1 X124.415 Y115.656 E84.87830
G1 X123.837 Y115.656 E84.89791
G1 X135.148 Y104.344 E85.44102
G1 X134.571 Y104.344 E85.46063
G1 X123.260 Y115.656 E86.00374
G1 X122.682 Y115.656 E86.02335
G1 X133.993 Y104.344 E86.56646
G1 X133.416 Y104.344 E86.58607
G1 X122.105 Y115.656 E87.12918
G1 X121.527 Y115.656 E87.14879
G1 X132.839 Y104.344 E87.69191
G1 X132.261 Y104.344 E87.71151
G1 X120.950 Y115.656 E88.25463
G1 X120.373 Y115.656 E88.27423
G1 X131.684 Y104.344 E88.81735
G1 X131.106 Y104.344 E88.83695
G1 X119.795 Y115.656 E89.38007
G1 X119.218 Y115.656 E89.39967
G1 X130.529 Y104.344 E89.94279
G1 X129.951 Y104.344 E89.96240
G1 X118.640 Y115.656 E90.50551
G1 X118.063 Y115.656 E90.52512
G1 X129.374 Y104.344 E91.06823
G1 X128.796 Y104.344 E91.08784
G1 X117.485 Y115.656 E91.63095
G1 X116.908 Y115.656 E91.65056
G1 X128.219 Y104.344 E92.19367
G1 X127.641 Y104.344 E92.21328
G1 X116.330 Y115.656 E92.75639
G1 X115.753 Y115.656 E92.77600
G1 X127.064 Y104.344 E93.31912
G1 X126.486 Y104.344 E93.33872
G1 X115.175 Y115.656 E93.88184
G1 X114.598 Y115.656 E93.90144
G1 X125.909 Y104.344 E94.44456
G1 X125.332 Y104.344 E94.46416
G1 X114.020 Y115.656 E95.00728
G1 X113.443 Y115.656 E95.02689
G1 X124.754 Y104.344 E95.57000
G1 X124.177 Y104.344 E95.58961
G1 X112.866 Y115.656 E96.13272
G1 X112.288 Y115.656 E96.15233
G1 X123.599 Y104.344 E96.69544
G1 X123.022 Y104.344 E96.71505
G1 X111.711 Y115.656 E97.25816
G1 X111.133 Y115.656 E97.27777
G1 X122.444 Y104.344 E97.82088
G1 X121.867 Y104.344 E97.84049
G1 X110.556 Y115.656 E98.38361
G1 X109.978 Y115.656 E98.40321
G1 X121.289 Y104.344 E98.94633
G1 X120.712 Y104.344 E98.96593
G1 X109.401 Y115.656 E99.50905
G1 X108.823 Y115.656 E99.52865
G1 X120.134 Y104.344 E100.07177
G1 X119.557 Y104.344 E100.09137
G1 X108.246 Y115.656 E100.63449
G1 X107.668 Y115.656 E100.65410
G1 X118.979 Y104.344 E101.19721
G1 X118.402 Y104.344 E101.21682
G1 X107.091 Y115.656 E101.75993
G1 X106.513 Y115.656 E101.77954
G1 X117.825 Y104.344 E102.32265
G1 X117.247 Y104.344 E102.34226
G1 X105.936 Y115.656 E102.88537
G1 X105.359 Y115.656 E102.90498
G1 X116.670 Y104.344 E103.44809
G1 X116.092 Y104.344 E103.46770
G1 X104.781 Y115.656 E104.01082
G1 X104.204 Y115.656 E104.03042
G1 X115.515 Y104.344 E104.57354
G1 X114.937 Y104.344 E104.59314
G1 X103.626 Y115.656 E105.13626
G1 X103.049 Y115.656 E105.15586
G1 X114.360 Y104.344 E105.69898
G1 X113.782 Y104.344 E105.71859
G1 X102.471 Y115.656 E106.26170
G1 X101.894 Y115.656 E106.28131
G1 X113.205 Y104.344 E106.82442
G1 X112.627 Y104.344 E106.84403
G1 X101.316 Y115.656 E107.38714
G1 X100.739 Y115.656 E107.40675
G1 X112.050 Y104.344 E107.94986
G1 X111.472 Y104.344 E107.96947
G1 X100.161 Y115.656 E108.51258
G1 X99.584 Y115.656 E108.53219
G1 X110.895 Y104.344 E109.07531
G1 X110.318 Y104.344 E109.09491
G1 X99.006 Y115.656 E109.63803
G1 X98.429 Y115.656 E109.65763
G1 X109.740 Y104.344 E110.20075
G1 X109.163 Y104.344 E110.22035
G1 X97.852 Y115.656 E110.76347
G1 X97.274 Y115.656 E110.78308
G1 X108.585 Y104.344 E111.32619
G1 X108.008 Y104.344 E111.34580
G1 X96.697 Y115.656 E111.88891
G1 X96.119 Y115.656 E111.90852
G1 X107.430 Y104.344 E112.45163
G1 X106.853 Y104.344 E112.47124
G1 X95.542 Y115.656 E113.01435
G1 X94.964 Y115.656 E113.03396
G1 X106.275 Y104.344 E113.57707
G1 X105.698 Y104.344 E113.59668
G1 X94.844 Y115.198 E114.11782
G1 X94.844 Y114.620 E114.13742
G1 X105.120 Y104.344 E114.63083
G1 X104.543 Y104.344 E114.65044
G1 X94.844 Y114.043 E115.11612
