;FLAVOR:Marlin
;TIME:6399
;Filament used: 6.65917m
;Layer height: 0.2

;POSTPROCESSED
;Generated with Cura_SteamEngine 4.0.0-BETA
M82 ;absolute extrusion mode
; Ender 3 Custom Start G-code

M201 X800 Y800 Z100 E5000 ; sets maximum accelerations, mm/sec^2
M203 X5000 Y5000 Z20 E100 ; sets maximum feedrates, mm/sec
M204 P1000 R1000 T1000 ; sets acceleration (P, T) and retract acceleration (R), mm/sec^2
M205 X13.00 Y13.00 Z0.30 E5.00 ; sets the jerk limits, mm/sec
M205 S0 T0 ; sets the minimum extruding and travel feed rate, mm/sec
M107

M140 S70       ; start heating bed
M104 S170     ; start heating extruder
G28         	             ; home axis while heating
M420 S1                          ; enable BL mesh
G1 Z10 F3000                 ; Move Z Axis up little to prevent scratching of Heat Bed
G1 X0.1 Y20 Z0.3 F5000.0         ; Move to start position
M190 S70       ; wait for bed
M104 S235     ; start heating extruder
M109 S235     ; wait for extruder

G92 E0                           ; Reset Extruder

G1 Y120 E10 F600 ; prime nozzle
G1 Y140 F5000 ; quick wipe

;G1 X0.1 Y200.0 Z0.3 F600 E15  ; Draw the first line
;G1 X0.4 Y200.0 Z0.3 F5000.0      ; Move to side a little
;G1 X0.4 Y20 Z0.3 F1500.0     ; Draw the second line
;G1 F1800 E-0.2 ; Retract filament 2 mm to prevent oozing

G92 E0                           ; Reset Extruder
G1 Z15 F5000                    ; Move Z Axis up little to prevent scratching of Heat Bed
G92 E0
G1 F4200 E-4
;LAYER_COUNT:476

;LAYER:0
M117 INDICATOR-Layer0
M107
M204 S3000
M205 X30 Y30
;TYPE:CUSTOM
M104 S235
G0 F9000 X89.168 Y98.582 Z0.2
M204 S400
M205 X10 Y10
;TYPE:SKIRT
G1 F4200 E0
G1 F600 X89.698 Y98.118 E0.02811
G1 X90.277 Y97.718 E0.0562
G1 X90.898 Y97.386 E0.08431
G1 X91.552 Y97.126 E0.1124
G1 X92.232 Y96.942 E0.14051
G1 X92.928 Y96.836 E0.16861
G1 X93.509 Y96.809 E0.19183
G1 X139.491 Y96.81 E2.02707
G1 X140.194 Y96.85 E2.05517
G1 X140.888 Y96.969 E2.08327
G1 X141.564 Y97.167 E2.11139
G1 X142.213 Y97.439 E2.13947
G1 X142.827 Y97.784 E2.16758
G1 X143.398 Y98.196 E2.19569
G1 X143.918 Y98.669 E2.22374
G1 X144.382 Y99.199 E2.25186
G1 X144.782 Y99.778 E2.27995
G1 X145.114 Y100.399 E2.30805
G1 X145.374 Y101.053 E2.33614
G1 X145.558 Y101.733 E2.36426
G1 X145.664 Y102.429 E2.39236
G1 X145.691 Y103.01 E2.41557
G1 X145.691 Y116.991 E2.97358
G1 X145.651 Y117.694 E3.00169
G1 X145.532 Y118.388 E3.02979
G1 X145.334 Y119.063 E3.05786
G1 X145.062 Y119.712 E3.08595
G1 X144.717 Y120.326 E3.11406
G1 X144.306 Y120.897 E3.14214
G1 X143.832 Y121.418 E3.17025
G1 X143.302 Y121.882 E3.19837
G1 X142.723 Y122.282 E3.22645
G1 X142.102 Y122.614 E3.25456
G1 X141.448 Y122.874 E3.28265
G1 X140.768 Y123.058 E3.31077
G1 X140.072 Y123.164 E3.33886
G1 X139.491 Y123.191 E3.36208
G1 X93.509 Y123.191 E5.19732
G1 X92.806 Y123.151 E5.22542
G1 X92.112 Y123.032 E5.25353
G1 X91.437 Y122.834 E5.2816
G1 X90.788 Y122.562 E5.30969
G1 X90.174 Y122.217 E5.3378
G1 X89.603 Y121.806 E5.36588
G1 X89.082 Y121.332 E5.39399
G1 X88.618 Y120.802 E5.4221
G1 X88.218 Y120.223 E5.45019
G1 X87.886 Y119.602 E5.4783
G1 X87.626 Y118.948 E5.50639
G1 X87.442 Y118.268 E5.5345
G1 X87.336 Y117.572 E5.5626
G1 X87.309 Y116.991 E5.58582
G1 X87.309 Y103.009 E6.14387
G1 X87.349 Y102.306 E6.17197
G1 X87.468 Y101.612 E6.20007
G1 X87.666 Y100.937 E6.22815
G1 X87.938 Y100.288 E6.25624
G1 X88.283 Y99.674 E6.28435
G1 X88.694 Y99.103 E6.31243
G1 X89.168 Y98.582 E6.34054
M204 S3000
M205 X30 Y30
G0 F9000 X89.64 Y98.796
M204 S400
M205 X10 Y10
G1 F600 X90.164 Y98.369 E6.36752
G1 X90.735 Y98.007 E6.3945
G1 X91.345 Y97.714 E6.42151
G1 X91.985 Y97.496 E6.4485
G1 X92.646 Y97.354 E6.47548
G1 X93.509 Y97.289 E6.51002
G1 X139.491 Y97.29 E8.34526
G1 X140.166 Y97.33 E8.37225
G1 X140.832 Y97.449 E8.39925
G1 X141.478 Y97.646 E8.42621
G1 X142.098 Y97.918 E8.45323
G1 X142.68 Y98.262 E8.48021
G1 X143.218 Y98.671 E8.50719
G1 X143.704 Y99.141 E8.53417
G1 X144.131 Y99.665 E8.56115
G1 X144.494 Y100.236 E8.58815
G1 X144.786 Y100.846 E8.61515
G1 X145.004 Y101.486 E8.64213
G1 X145.146 Y102.147 E8.66911
G1 X145.211 Y103.01 E8.70366
G1 X145.211 Y116.991 E9.26167
G1 X145.171 Y117.666 E9.28866
G1 X145.052 Y118.332 E9.31566
G1 X144.855 Y118.978 E9.34261
G1 X144.583 Y119.597 E9.3696
G1 X144.24 Y120.18 E9.3966
G1 X143.83 Y120.718 E9.42359
G1 X143.36 Y121.204 E9.45058
G1 X142.836 Y121.631 E9.47756
G1 X142.265 Y121.993 E9.50454
G1 X141.655 Y122.286 E9.53155
G1 X141.015 Y122.504 E9.55854
G1 X140.354 Y122.646 E9.58552
G1 X139.491 Y122.711 E9.62006
G1 X93.509 Y122.711 E11.4553
G1 X92.834 Y122.671 E11.48229
G1 X92.168 Y122.552 E11.50929
G1 X91.522 Y122.355 E11.53625
G1 X90.903 Y122.083 E11.56323
G1 X90.32 Y121.74 E11.59023
G1 X89.782 Y121.33 E11.61723
G1 X89.296 Y120.86 E11.64421
G1 X88.869 Y120.336 E11.67119
G1 X88.507 Y119.765 E11.69817
G1 X88.214 Y119.155 E11.72518
G1 X87.996 Y118.515 E11.75217
G1 X87.854 Y117.854 E11.77915
G1 X87.789 Y116.991 E11.81369
G1 X87.789 Y103.009 E12.37175
G1 X87.829 Y102.334 E12.39873
G1 X87.948 Y101.668 E12.42574
G1 X88.145 Y101.022 E12.45269
G1 X88.417 Y100.403 E12.47968
G1 X88.76 Y99.82 E12.50668
G1 X89.17 Y99.282 E12.53367
G1 X89.64 Y98.796 E12.56066
M204 S3000
M205 X30 Y30
G0 F9000 X89.645 Y99.47
M204 S400
M205 X10 Y10
G1 F600 X90.11 Y99.021 E12.58646
G1 X90.628 Y98.632 E12.61231
G1 X91.189 Y98.31 E12.63813
G1 X91.786 Y98.06 E12.66396
G1 X92.409 Y97.886 E12.68978
G1 X93.049 Y97.789 E12.71561
G1 X93.509 Y97.769 E12.73399
G1 X139.491 Y97.77 E14.56923
G1 X140.137 Y97.81 E14.59506
G1 X140.773 Y97.929 E14.62089
G1 X141.39 Y98.126 E14.64674
G1 X141.977 Y98.397 E14.67254
G1 X142.527 Y98.739 E14.69839
G1 X143.03 Y99.146 E14.72422
G1 X143.479 Y99.611 E14.75002
G1 X143.868 Y100.129 E14.77587
G1 X144.19 Y100.691 E14.80172
G1 X144.44 Y101.287 E14.82752
G1 X144.614 Y101.911 E14.85337
G1 X144.711 Y102.55 E14.87917
G1 X144.731 Y103.01 E14.89755
G1 X144.731 Y116.991 E15.45556
G1 X144.691 Y117.637 E15.48139
G1 X144.572 Y118.273 E15.50722
G1 X144.375 Y118.889 E15.53303
G1 X144.104 Y119.477 E15.55887
G1 X143.762 Y120.027 E15.58472
G1 X143.355 Y120.53 E15.61054
G1 X142.89 Y120.979 E15.63634
G1 X142.372 Y121.368 E15.6622
G1 X141.811 Y121.69 E15.68801
G1 X141.214 Y121.94 E15.71385
G1 X140.591 Y122.114 E15.73966
G1 X139.951 Y122.211 E15.7655
G1 X139.491 Y122.231 E15.78388
G1 X93.509 Y122.231 E17.61912
G1 X92.863 Y122.191 E17.64495
G1 X92.227 Y122.072 E17.67077
G1 X91.611 Y121.875 E17.69659
G1 X91.023 Y121.604 E17.72243
G1 X90.473 Y121.262 E17.74828
G1 X89.97 Y120.855 E17.7741
G1 X89.521 Y120.39 E17.7999
G1 X89.132 Y119.872 E17.82576
G1 X88.81 Y119.311 E17.85157
G1 X88.56 Y118.714 E17.87741
G1 X88.386 Y118.091 E17.90322
G1 X88.289 Y117.451 E17.92906
G1 X88.269 Y116.991 E17.94744
G1 X88.269 Y103.009 E18.50549
G1 X88.309 Y102.363 E18.53132
G1 X88.428 Y101.727 E18.55714
G1 X88.625 Y101.111 E18.58296
G1 X88.896 Y100.523 E18.6088
G1 X89.238 Y99.973 E18.63465
G1 X89.645 Y99.47 E18.66047
M204 S3000
M205 X30 Y30
G1 F4200 E14.66047
;MESH:tempTower_235_175.stl
G0 F9000 X91.46 Y103.494
G0 X93.994 Y103.494
G0 X137.598 Y104.902
G0 X138.92 Y116.45
G0 X139.26 Y116.76
M204 S400
M205 X10 Y10
;TYPE:WALL-OUTER
G1 F4200 E18.66047
G1 F600 X93.74 Y116.76 E20.47727
G1 X93.74 Y103.24 E21.01689
G1 X139.26 Y103.24 E22.83369
G1 X139.26 Y116.76 E23.3733
M204 S3000
M205 X30 Y30
G0 F9000 X137.26 Y116.76
G0 X137.26 Y116.232
G0 X138.78 Y116.28
M204 S400
M205 X10 Y10
;TYPE:WALL-INNER
G1 F600 X94.22 Y116.28 E25.15179
G1 X94.22 Y103.72 E25.65308
G1 X138.78 Y103.72 E27.43157
G1 X138.78 Y116.28 E27.93287
M204 S3000
M205 X30 Y30
G0 F9000 X138.3 Y115.8
M204 S400
M205 X10 Y10
G1 F600 X94.7 Y115.8 E29.67304
G1 X94.7 Y104.2 E30.13602
G1 X138.3 Y104.2 E31.87619
G1 X138.3 Y115.8 E32.33917
M204 S3000
M205 X30 Y30
G0 F9000 X137.82 Y115.32
M204 S400
M205 X10 Y10
G1 F600 X95.18 Y115.32 E34.04102
G1 X95.18 Y104.68 E34.46569
G1 X137.82 Y104.68 E36.16754
G1 X137.82 Y115.32 E36.59221
M204 S3000
M205 X30 Y30
G0 F9000 X137.35 Y114.85
M204 S400
M205 X10 Y10
;TYPE:SKIN
G1 F600 X95.65 Y114.85 E38.25655
G1 X95.65 Y105.15 E38.64369
G1 X137.35 Y105.15 E40.30803
G1 X137.35 Y114.85 E40.69518
M204 S3000
M205 X30 Y30
G0 F9000 X137.67 Y114.85
G0 X137.67 Y105.907
G0 X137.133 Y105.907
M204 S400
M205 X10 Y10
G1 F600 X136.591 Y105.365 E40.72577
M204 S3000
M205 X30 Y30
G0 F9000 X135.912 Y105.365
M204 S400
M205 X10 Y10
G1 F600 X137.133 Y106.586 E40.79469
M204 S3000
M205 X30 Y30
G0 F9000 X137.133 Y107.265
M204 S400
M205 X10 Y10
G1 F600 X135.234 Y105.365 E40.90191
M204 S3000
M205 X30 Y30
G0 F9000 X134.555 Y105.365
M204 S400
M205 X10 Y10
G1 F600 X137.133 Y107.944 E41.04745
M204 S3000
M205 X30 Y30
G0 F9000 X137.133 Y108.622
M204 S400
M205 X10 Y10
G1 F600 X133.876 Y105.365 E41.23129
M204 S3000
M205 X30 Y30
G0 F9000 X133.197 Y105.365
M204 S400
M205 X10 Y10
G1 F600 X137.133 Y109.301 E41.45345
M204 S3000
M205 X30 Y30
G0 F9000 X137.133 Y109.98
M204 S400
M205 X10 Y10
G1 F600 X132.518 Y105.365 E41.71394
M204 S3000
M205 X30 Y30
G0 F9000 X131.84 Y105.365
M204 S400
M205 X10 Y10
G1 F600 X137.133 Y110.659 E42.01273
M204 S3000
M205 X30 Y30
G0 F9000 X137.133 Y111.338
M204 S400
M205 X10 Y10
G1 F600 X131.161 Y105.365 E42.34984
M204 S3000
M205 X30 Y30
G0 F9000 X130.482 Y105.365
M204 S400
M205 X10 Y10
G1 F600 X137.133 Y112.017 E42.72528
M204 S3000
M205 X30 Y30
G0 F9000 X137.133 Y112.695
M204 S400
M205 X10 Y10
G1 F600 X129.803 Y105.365 E43.13902
M204 S3000
M205 X30 Y30
G0 F9000 X129.124 Y105.365
M204 S400
M205 X10 Y10
G1 F600 X137.133 Y113.374 E43.59108
M204 S3000
M205 X30 Y30
G0 F9000 X137.133 Y114.053
M204 S400
M205 X10 Y10
G1 F600 X128.445 Y105.365 E44.08147
M204 S3000
M205 X30 Y30
G0 F9000 X127.767 Y105.365
M204 S400
M205 X10 Y10
G1 F600 X137.034 Y114.633 E44.60457
M204 S3000
M205 X30 Y30
G0 F9000 X136.355 Y114.633
M204 S400
M205 X10 Y10
G1 F600 X127.088 Y105.365 E45.12767
M204 S3000
M205 X30 Y30
G0 F9000 X126.409 Y105.365
M204 S400
M205 X10 Y10
G1 F600 X135.676 Y114.633 E45.65076
M204 S3000
M205 X30 Y30
G0 F9000 X134.997 Y114.633
M204 S400
M205 X10 Y10
G1 F600 X125.73 Y105.365 E46.17386
M204 S3000
M205 X30 Y30
G0 F9000 X125.051 Y105.365
M204 S400
M205 X10 Y10
G1 F600 X134.319 Y114.633 E46.69699
M204 S3000
M205 X30 Y30
G0 F9000 X133.64 Y114.633
M204 S400
M205 X10 Y10
G1 F600 X124.373 Y105.365 E47.22009
M204 S3000
M205 X30 Y30
G0 F9000 X123.694 Y105.365
M204 S400
M205 X10 Y10
G1 F600 X132.961 Y114.633 E47.74318
M204 S3000
M205 X30 Y30
G0 F9000 X132.282 Y114.633
M204 S400
M205 X10 Y10
G1 F600 X123.015 Y105.365 E48.26628
M204 S3000
M205 X30 Y30
G0 F9000 X122.336 Y105.365
M204 S400
M205 X10 Y10
G1 F600 X131.603 Y114.633 E48.78938
M204 S3000
M205 X30 Y30
G0 F9000 X130.925 Y114.633
M204 S400
M205 X10 Y10
G1 F600 X121.657 Y105.365 E49.3125
M204 S3000
M205 X30 Y30
G0 F9000 X120.978 Y105.365
M204 S400
M205 X10 Y10
G1 F600 X130.246 Y114.633 E49.83563
M204 S3000
M205 X30 Y30
G0 F9000 X129.567 Y114.633
M204 S400
M205 X10 Y10
G1 F600 X120.3 Y105.365 E50.35873
M204 S3000
M205 X30 Y30
G0 F9000 X119.621 Y105.365
M204 S400
M205 X10 Y10
G1 F600 X128.888 Y114.633 E50.88183
M204 S3000
M205 X30 Y30
G0 F9000 X128.209 Y114.633
M204 S400
M205 X10 Y10
G1 F600 X118.942 Y105.365 E51.40492
M204 S3000
M205 X30 Y30
G0 F9000 X118.263 Y105.365
M204 S400
M205 X10 Y10
G1 F600 X127.53 Y114.633 E51.92802
M204 S3000
M205 X30 Y30
G0 F9000 X126.852 Y114.633
M204 S400
M205 X10 Y10
G1 F600 X117.584 Y105.365 E52.45115
M204 S3000
M205 X30 Y30
G0 F9000 X116.905 Y105.365
M204 S400
M205 X10 Y10
G1 F600 X126.173 Y114.633 E52.97427
M204 S3000
M205 X30 Y30
G0 F9000 X125.494 Y114.633
M204 S400
M205 X10 Y10
G1 F600 X116.227 Y105.365 E53.49737
M204 S3000
M205 X30 Y30
G0 F9000 X115.548 Y105.365
M204 S400
M205 X10 Y10
G1 F600 X124.815 Y114.633 E54.02047
M204 S3000
M205 X30 Y30
G0 F9000 X124.136 Y114.633
M204 S400
M205 X10 Y10
G1 F600 X114.869 Y105.365 E54.54357
M204 S3000
M205 X30 Y30
G0 F9000 X114.19 Y105.365
M204 S400
M205 X10 Y10
G1 F600 X123.458 Y114.633 E55.06669
M204 S3000
M205 X30 Y30
G0 F9000 X122.779 Y114.633
M204 S400
M205 X10 Y10
G1 F600 X113.511 Y105.365 E55.58982
M204 S3000
M205 X30 Y30
G0 F9000 X112.833 Y105.365
M204 S400
M205 X10 Y10
G1 F600 X122.1 Y114.633 E56.11292
M204 S3000
M205 X30 Y30
G0 F9000 X121.421 Y114.633
M204 S400
M205 X10 Y10
G1 F600 X112.154 Y105.365 E56.63601
M204 S3000
M205 X30 Y30
G0 F9000 X111.475 Y105.365
M204 S400
M205 X10 Y10
G1 F600 X120.742 Y114.633 E57.15911
M204 S3000
M205 X30 Y30
G0 F9000 X120.063 Y114.633
M204 S400
M205 X10 Y10
G1 F600 X110.796 Y105.365 E57.68221
M204 S3000
M205 X30 Y30
G0 F9000 X110.117 Y105.365
M204 S400
M205 X10 Y10
G1 F600 X119.385 Y114.633 E58.20534
M204 S3000
M205 X30 Y30
G0 F9000 X118.706 Y114.633
M204 S400
M205 X10 Y10
G1 F600 X109.438 Y105.365 E58.72846
M204 S3000
M205 X30 Y30
G0 F9000 X108.76 Y105.365
M204 S400
M205 X10 Y10
G1 F600 X118.027 Y114.633 E59.25156
M204 S3000
M205 X30 Y30
G0 F9000 X117.348 Y114.633
M204 S400
M205 X10 Y10
G1 F600 X108.081 Y105.365 E59.77466
M204 S3000
M205 X30 Y30
G0 F9000 X107.402 Y105.365
M204 S400
M205 X10 Y10
G1 F600 X116.669 Y114.633 E60.29776
M204 S3000
M205 X30 Y30
G0 F9000 X115.99 Y114.632
M204 S400
M205 X10 Y10
G1 F600 X106.723 Y105.365 E60.82082
M204 S3000
M205 X30 Y30
G0 F9000 X106.044 Y105.365
M204 S400
M205 X10 Y10
G1 F600 X115.311 Y114.632 E61.34389
M204 S3000
M205 X30 Y30
G0 F9000 X114.632 Y114.632
M204 S400
M205 X10 Y10
G1 F600 X105.365 Y105.365 E61.86696
M204 S3000
M205 X30 Y30
G0 F9000 X104.687 Y105.365
M204 S400
M205 X10 Y10
G1 F600 X113.953 Y114.632 E62.39
M204 S3000
M205 X30 Y30
G0 F9000 X113.274 Y114.632
M204 S400
M205 X10 Y10
G1 F600 X104.008 Y105.365 E62.91305
M204 S3000
M205 X30 Y30
G0 F9000 X103.329 Y105.365
M204 S400
M205 X10 Y10
G1 F600 X112.596 Y114.632 E63.43612
M204 S3000
M205 X30 Y30
G0 F9000 X111.917 Y114.632
M204 S400
M205 X10 Y10
G1 F600 X102.65 Y105.365 E63.95919
M204 S3000
M205 X30 Y30
G0 F9000 X101.971 Y105.365
M204 S400
M205 X10 Y10
G1 F600 X111.238 Y114.632 E64.48225
M204 S3000
M205 X30 Y30
G0 F9000 X110.559 Y114.632
M204 S400
M205 X10 Y10
G1 F600 X101.293 Y105.365 E65.0053
M204 S3000
M205 X30 Y30
G0 F9000 X100.614 Y105.365
M204 S400
M205 X10 Y10
G1 F600 X109.88 Y114.632 E65.52834
M204 S3000
M205 X30 Y30
G0 F9000 X109.202 Y114.632
M204 S400
M205 X10 Y10
G1 F600 X99.935 Y105.365 E66.05141
M204 S3000
M205 X30 Y30
G0 F9000 X99.256 Y105.365
M204 S400
M205 X10 Y10
G1 F600 X108.523 Y114.632 E66.57448
M204 S3000
M205 X30 Y30
G0 F9000 X107.844 Y114.632
M204 S400
M205 X10 Y10
G1 F600 X98.577 Y105.365 E67.09755
M204 S3000
M205 X30 Y30
G0 F9000 X97.898 Y105.365
M204 S400
M205 X10 Y10
G1 F600 X107.165 Y114.632 E67.62062
M204 S3000
M205 X30 Y30
G0 F9000 X106.486 Y114.632
M204 S400
M205 X10 Y10
G1 F600 X97.22 Y105.365 E68.14366
M204 S3000
M205 X30 Y30
G0 F9000 X96.541 Y105.365
M204 S400
M205 X10 Y10
G1 F600 X105.807 Y114.632 E68.6667
M204 S3000
M205 X30 Y30
G0 F9000 X105.129 Y114.632
M204 S400
M205 X10 Y10
G1 F600 X95.866 Y105.369 E69.18954
M204 S3000
M205 X30 Y30
G0 F9000 X95.866 Y106.048
M204 S400
M205 X10 Y10
G1 F600 X104.45 Y114.632 E69.67406
M204 S3000
M205 X30 Y30
G0 F9000 X103.771 Y114.632
M204 S400
M205 X10 Y10
G1 F600 X95.866 Y106.727 E70.12025
M204 S3000
M205 X30 Y30
G0 F9000 X95.866 Y107.405
M204 S400
M205 X10 Y10
G1 F600 X103.092 Y114.632 E70.52815
M204 S3000
M205 X30 Y30
G0 F9000 X102.413 Y114.632
M204 S400
M205 X10 Y10
G1 F600 X95.866 Y108.084 E70.89772
M204 S3000
M205 X30 Y30
G0 F9000 X95.866 Y108.763
M204 S400
M205 X10 Y10
G1 F600 X101.734 Y114.632 E71.22896
M204 S3000
M205 X30 Y30
G0 F9000 X101.056 Y114.632
M204 S400
M205 X10 Y10
G1 F600 X95.866 Y109.442 E71.52191
M204 S3000
M205 X30 Y30
G0 F9000 X95.866 Y110.121
M204 S400
M205 X10 Y10
G1 F600 X100.377 Y114.632 E71.77653
M204 S3000
M205 X30 Y30
G0 F9000 X99.698 Y114.632
M204 S400
M205 X10 Y10
G1 F600 X95.866 Y110.8 E71.99282
M204 S3000
M205 X30 Y30
G0 F9000 X95.866 Y111.478
M204 S400
M205 X10 Y10
G1 F600 X99.019 Y114.632 E72.17082
M204 S3000
M205 X30 Y30
G0 F9000 X98.34 Y114.632
M204 S400
M205 X10 Y10
G1 F600 X95.866 Y112.157 E72.31049
M204 S3000
M205 X30 Y30
G0 F9000 X95.866 Y112.836
M204 S400
M205 X10 Y10
G1 F600 X97.662 Y114.632 E72.41186
M204 S3000
M205 X30 Y30
G0 F9000 X96.983 Y114.632
M204 S400
M205 X10 Y10
