; generated by Slic3r Prusa Edition 1.42.0-alpha7+win64 on 2019-03-08 at 18:09:41

; 

; external perimeters extrusion width = 0.45mm
; perimeters extrusion width = 0.45mm
; infill extrusion width = 0.45mm
; solid infill extrusion width = 0.45mm
; top infill extrusion width = 0.40mm
; first layer extrusion width = 0.60mm

M201 X800 Y800 Z100 E5000 ; sets maximum accelerations, mm/sec^2
M203 X8000 Y8000 Z60 E100 ; sets maximum feedrates, mm/sec
M204 P1000 R1000 T1000 ; sets acceleration (P, T) and retract acceleration (R), mm/sec^2
M205 X10.00 Y10.00 Z0.30 E5.00 ; sets the jerk limits, mm/sec
M205 S0 T0 ; sets the minimum extruding and travel feed rate, mm/sec
M107
; Ender 3 Custom Start G-code
M140 S70     ; start heating bed
M104 S160                               ; start preheating extruder but dont heat to melt temp to avoid oozing
G28                                     ; home axis while heating
M420 S1                                 ; enable BL mesh
G1 Z12.40 F5000                        ; Move Z Axis up little to prevent scratching of Heat Bed
G1 X0.1 Y10 Z0.3 F3000                           ; Move to start position
M104 S235         ; start heating extruder to print temp now
M190 S70     ; wait for bed
M109 S235         ; wait for extruder
G92 E0                                  ; Reset Extruder
G1 X0.1 Y120 Z0.3 F600 E20         ; Draw the first line slow
G1 X0.1 Y160 Z0.3 F3000            ; fast wipe
G1 F500 E15                 ; Retract filament 2 mm to prevent oozing
G1 Y20 X10 Z12 F5000.0                           ; move away from line
G92 E0                                  ; Reset Extruder
; End of Custom Start G-code
; Filament gcode
G21 ; set units to millimeters
G90 ; use absolute coordinates
M82 ; use absolute distances for extrusion
G92 E0
;LAYER:0
G1 E-5.00000 F3600.00000
G92 E0
G1 Z1.000 F45000.000
G1 X91.563 Y94.889
G1 Z0.300
G1 E5.00000 F3600.00000
M204 S500
G1 F600
G1 X93.357 Y94.662 E5.11236
G1 X139.507 Y94.661 E7.97963
G1 X141.011 Y94.799 E8.07347
G1 X142.459 Y95.204 E8.16687
G1 X143.811 Y95.862 E8.26027
G1 X145.028 Y96.756 E8.35411
G1 X146.063 Y97.856 E8.44795
G1 X146.883 Y99.124 E8.54179
G1 X147.459 Y100.512 E8.63518
G1 X147.778 Y101.989 E8.72902
G1 X147.839 Y102.964 E8.78971
G1 X147.839 Y117.057 E9.66531
G1 X147.667 Y118.686 E9.76709
G1 X147.420 Y119.609 E9.82645
G1 X147.070 Y120.498 E9.88582
G1 X146.624 Y121.335 E9.94473
G1 X146.081 Y122.121 E10.00410
G1 X145.452 Y122.841 E10.06346
G1 X144.750 Y123.479 E10.12238
G1 X143.975 Y124.037 E10.18174
G1 X143.140 Y124.502 E10.24110
G1 X141.437 Y125.111 E10.35347
G1 X139.636 Y125.338 E10.46627
G1 X92.937 Y125.320 E13.36764
G1 X91.856 Y125.175 E13.43541
G1 X90.796 Y124.888 E13.50362
G1 X89.783 Y124.465 E13.57183
G1 X88.841 Y123.916 E13.63960
G1 X87.978 Y123.249 E13.70737
G1 X87.205 Y122.469 E13.77558
G1 X86.541 Y121.595 E13.84379
G1 X85.998 Y120.640 E13.91200
G1 X85.411 Y119.027 E14.01863
G1 X85.167 Y117.329 E14.12526
G1 X85.161 Y102.950 E15.01859
G1 X85.257 Y101.735 E15.09431
G1 X85.472 Y100.745 E15.15722
G1 X85.801 Y99.796 E15.21968
G1 X86.243 Y98.893 E15.28213
G1 X86.790 Y98.049 E15.34459
G1 X87.434 Y97.278 E15.40705
G1 X88.172 Y96.585 E15.46996
G1 X88.983 Y95.990 E15.53242
G1 X89.860 Y95.498 E15.59487
G1 X91.506 Y94.909 E15.70351
M204 S800
G1 X91.683 Y95.417 F45000.000
M204 S500
G1 F600
G1 X93.382 Y95.197 E15.80994
G1 X139.507 Y95.197 E18.67564
G1 X140.921 Y95.327 E18.76385
G1 X142.281 Y95.709 E18.85162
G1 X143.556 Y96.333 E18.93983
G1 X144.691 Y97.174 E19.02761
G1 X145.657 Y98.206 E19.11539
G1 X146.424 Y99.400 E19.20359
G1 X146.961 Y100.714 E19.29180
G1 X147.252 Y102.104 E19.38000
G1 X147.303 Y117.048 E20.30848
G1 X147.151 Y118.536 E20.40139
G1 X146.920 Y119.416 E20.45795
G1 X146.591 Y120.258 E20.51409
G1 X146.167 Y121.056 E20.57023
G1 X145.649 Y121.805 E20.62679
G1 X145.047 Y122.488 E20.68336
G1 X144.376 Y123.093 E20.73950
G1 X143.639 Y123.615 E20.79563
G1 X142.840 Y124.052 E20.85220
G1 X141.266 Y124.601 E20.95577
G1 X139.611 Y124.803 E21.05933
G1 X92.990 Y124.787 E23.95588
G1 X91.957 Y124.649 E24.02058
G1 X90.959 Y124.378 E24.08485
G1 X90.006 Y123.977 E24.14912
G1 X89.113 Y123.454 E24.21339
G1 X88.298 Y122.817 E24.27766
G1 X87.575 Y122.078 E24.34193
G1 X86.951 Y121.244 E24.40662
G1 X86.448 Y120.340 E24.47089
G1 X85.918 Y118.847 E24.56934
G1 X85.701 Y117.277 E24.66779
G1 X85.697 Y102.959 E25.55736
G1 X85.786 Y101.824 E25.62805
G1 X85.986 Y100.894 E25.68718
G1 X86.301 Y99.988 E25.74675
G1 X86.721 Y99.134 E25.80588
G1 X87.242 Y98.338 E25.86501
G1 X87.856 Y97.611 E25.92415
G1 X88.555 Y96.964 E25.98328
G1 X89.326 Y96.407 E26.04241
G1 X90.160 Y95.948 E26.10155
G1 X91.626 Y95.437 E26.19802
M204 S800
G1 X91.799 Y95.944 F45000.000
M204 S500
G1 F600
G1 X91.894 Y95.912 E26.20429
G1 X93.400 Y95.733 E26.29846
G1 X139.507 Y95.732 E29.16305
G1 X140.825 Y95.854 E29.24529
G1 X142.105 Y96.215 E29.32793
G1 X143.298 Y96.803 E29.41057
G1 X144.359 Y97.595 E29.49280
G1 X145.258 Y98.566 E29.57504
G1 X145.970 Y99.689 E29.65768
G1 X146.463 Y100.918 E29.73991
G1 X146.725 Y102.215 E29.82214
G1 X146.768 Y117.040 E30.74320
G1 X146.632 Y118.397 E30.82790
G1 X146.418 Y119.228 E30.88125
G1 X146.110 Y120.022 E30.93419
G1 X145.707 Y120.781 E30.98754
G1 X145.218 Y121.486 E31.04089
G1 X144.649 Y122.129 E31.09423
G1 X144.008 Y122.701 E31.14758
G1 X143.304 Y123.193 E31.20093
G1 X142.547 Y123.598 E31.25428
G1 X141.106 Y124.088 E31.34887
G1 X139.594 Y124.267 E31.44345
G1 X93.034 Y124.253 E34.33616
G1 X92.064 Y124.125 E34.39694
G1 X91.127 Y123.869 E34.45731
G1 X90.232 Y123.491 E34.51768
G1 X89.389 Y122.994 E34.57846
G1 X88.622 Y122.387 E34.63924
G1 X87.947 Y121.688 E34.69961
G1 X87.371 Y120.906 E34.75998
G1 X86.902 Y120.047 E34.82076
G1 X86.427 Y118.671 E34.91123
G1 X86.236 Y117.234 E35.00129
G1 X86.232 Y102.967 E35.88768
G1 X86.313 Y101.918 E35.95300
G1 X86.502 Y101.040 E36.00883
G1 X86.797 Y100.191 E36.06466
G1 X87.191 Y99.391 E36.12007
G1 X87.685 Y98.640 E36.17590
G1 X88.267 Y97.956 E36.23173
G1 X88.930 Y97.349 E36.28755
G1 X89.662 Y96.828 E36.34338
G1 X90.453 Y96.402 E36.39921
G1 X91.742 Y95.964 E36.48380
M204 S800
G1 E31.48380 F3600.00000
G92 E0
G1 Z1.300 F45000.000
G1 X138.129 Y115.629
G1 Z0.300
G1 E5.00000 F3600.00000
M204 S500
G1 F600
G1 X94.871 Y115.629 E7.68755
G1 X94.871 Y104.371 E8.38697
G1 X138.129 Y104.371 E11.07452
G1 X138.129 Y115.569 E11.77021
M204 S800
G1 X138.664 Y116.164 F45000.000
M204 S500
G1 F600
G1 X94.336 Y116.164 E14.52431
G1 X94.336 Y103.836 E15.29028
G1 X138.664 Y103.836 E18.04439
G1 X138.664 Y116.104 E18.80663
M204 S800
G1 X139.200 Y116.700 F45000.000
M204 S500
G1 F600
G1 X93.800 Y116.700 E21.62729
G1 X93.800 Y103.300 E22.45982
G1 X139.200 Y103.300 E25.28048
G1 X139.200 Y116.640 E26.10928
M204 S800
G1 X138.802 Y116.662 F45000.000
G1 E21.10928 F3600.00000
G92 E0
G1 Z1.300 F45000.000
G1 X137.968 Y105.619
G1 Z0.300
G1 E5.00000 F3600.00000
M204 S500
G1 F600
G1 X137.122 Y104.773 E5.07460
G1 X136.362 Y104.773 E5.12201
G1 X137.727 Y106.138 E5.24240
G1 X137.727 Y106.898 E5.28980
G1 X135.602 Y104.773 E5.47724
G1 X134.841 Y104.773 E5.52465
G1 X137.727 Y107.659 E5.77913
G1 X137.727 Y108.419 E5.82654
G1 X134.081 Y104.773 E6.14807
G1 X133.321 Y104.773 E6.19548
G1 X137.727 Y109.179 E6.58406
G1 X137.727 Y109.939 E6.63147
G1 X132.561 Y104.773 E7.08709
G1 X131.800 Y104.773 E7.13450
G1 X137.727 Y110.700 E7.65717
G1 X137.727 Y111.460 E7.70458
G1 X131.040 Y104.773 E8.29429
G1 X130.280 Y104.773 E8.34170
G1 X137.727 Y112.220 E8.99847
G1 X137.727 Y112.981 E9.04588
G1 X129.519 Y104.773 E9.76969
G1 X128.759 Y104.773 E9.81710
G1 X137.727 Y113.741 E10.60795
G1 X137.727 Y114.501 E10.65536
G1 X127.999 Y104.773 E11.51327
G1 X127.239 Y104.773 E11.56068
G1 X137.693 Y115.227 E12.48260
G1 X136.933 Y115.227 E12.53001
G1 X126.478 Y104.773 E13.45194
G1 X125.718 Y104.773 E13.49935
G1 X136.172 Y115.227 E14.42128
G1 X135.412 Y115.227 E14.46869
G1 X124.958 Y104.773 E15.39061
G1 X124.198 Y104.773 E15.43802
G1 X134.652 Y115.227 E16.35995
G1 X133.891 Y115.227 E16.40736
G1 X123.437 Y104.773 E17.32929
G1 X122.677 Y104.773 E17.37670
G1 X133.131 Y115.227 E18.29862
G1 X132.371 Y115.227 E18.34603
G1 X121.917 Y104.773 E19.26796
G1 X121.156 Y104.773 E19.31537
G1 X131.611 Y115.227 E20.23730
G1 X130.850 Y115.227 E20.28471
G1 X120.396 Y104.773 E21.20663
G1 X119.636 Y104.773 E21.25404
G1 X130.090 Y115.227 E22.17597
G1 X129.330 Y115.227 E22.22338
G1 X118.876 Y104.773 E23.14531
G1 X118.115 Y104.773 E23.19271
G1 X128.569 Y115.227 E24.11464
G1 X127.809 Y115.227 E24.16205
G1 X117.355 Y104.773 E25.08398
G1 X116.595 Y104.773 E25.13139
G1 X127.049 Y115.227 E26.05332
G1 X126.289 Y115.227 E26.10072
G1 X115.835 Y104.773 E27.02265
G1 X115.074 Y104.773 E27.07006
G1 X125.528 Y115.227 E27.99199
G1 X124.768 Y115.227 E28.03940
G1 X114.314 Y104.773 E28.96132
G1 X113.554 Y104.773 E29.00873
G1 X124.008 Y115.227 E29.93066
G1 X123.248 Y115.227 E29.97807
G1 X112.793 Y104.773 E30.90000
G1 X112.033 Y104.773 E30.94741
G1 X122.487 Y115.227 E31.86933
G1 X121.727 Y115.227 E31.91674
G1 X111.273 Y104.773 E32.83867
G1 X110.513 Y104.773 E32.88608
G1 X120.967 Y115.227 E33.80801
G1 X120.206 Y115.227 E33.85542
G1 X109.752 Y104.773 E34.77734
G1 X108.992 Y104.773 E34.82475
G1 X119.446 Y115.227 E35.74668
G1 X118.686 Y115.227 E35.79409
G1 X108.232 Y104.773 E36.71602
G1 X107.472 Y104.773 E36.76343
G1 X117.926 Y115.227 E37.68535
G1 X117.165 Y115.227 E37.73276
G1 X106.711 Y104.773 E38.65469
G1 X105.951 Y104.773 E38.70210
G1 X116.405 Y115.227 E39.62403
G1 X115.645 Y115.227 E39.67144
G1 X105.191 Y104.773 E40.59336
G1 X104.430 Y104.773 E40.64077
G1 X114.885 Y115.227 E41.56270
G1 X114.124 Y115.227 E41.61011
G1 X103.670 Y104.773 E42.53204
G1 X102.910 Y104.773 E42.57945
G1 X113.364 Y115.227 E43.50137
G1 X112.604 Y115.227 E43.54878
G1 X102.150 Y104.773 E44.47071
G1 X101.389 Y104.773 E44.51812
G1 X111.843 Y115.227 E45.44005
G1 X111.083 Y115.227 E45.48746
G1 X100.629 Y104.773 E46.40938
G1 X99.869 Y104.773 E46.45679
G1 X110.323 Y115.227 E47.37872
G1 X109.563 Y115.227 E47.42613
G1 X99.108 Y104.773 E48.34806
G1 X98.348 Y104.773 E48.39547
G1 X108.802 Y115.227 E49.31739
G1 X108.042 Y115.227 E49.36480
G1 X97.588 Y104.773 E50.28673
G1 X96.828 Y104.773 E50.33414
G1 X107.282 Y115.227 E51.25607
G1 X106.522 Y115.227 E51.30347
G1 X96.067 Y104.773 E52.22540
G1 X95.307 Y104.773 E52.27281
G1 X105.761 Y115.227 E53.19474
G1 X105.001 Y115.227 E53.24215
G1 X95.273 Y105.499 E54.10004
G1 X95.273 Y106.259 E54.14745
G1 X104.241 Y115.227 E54.93830
G1 X103.480 Y115.227 E54.98571
G1 X95.273 Y107.020 E55.70951
G1 X95.273 Y107.780 E55.75692
G1 X102.720 Y115.227 E56.41368
G1 X101.960 Y115.227 E56.46109
G1 X95.273 Y108.540 E57.05080
G1 X95.273 Y109.300 E57.09821
G1 X101.200 Y115.227 E57.62087
G1 X100.439 Y115.227 E57.66828
G1 X95.273 Y110.061 E58.12389
G1 X95.273 Y110.821 E58.17130
G1 X99.679 Y115.227 E58.55987
G1 X98.919 Y115.227 E58.60728
G1 X95.273 Y111.581 E58.92880
G1 X95.273 Y112.341 E58.97621
G1 X98.159 Y115.227 E59.23068
G1 X97.398 Y115.227 E59.27809
G1 X95.273 Y113.102 E59.46552
G1 X95.273 Y113.862 E59.51293
G1 X96.638 Y115.227 E59.63331
G1 X95.878 Y115.227 E59.68072
G1 X95.032 Y114.381 E59.75531
M204 S800
;LAYER:1
G1 E54.75531 F3600.00000
G92 E0
G1 Z1.300 F45000.000
M140 S60 ; set bed temperature
G1 X138.461 Y115.961
G1 Z0.500
G1 E5.00000 F3600.00000
M204 S1000
G1 F4800
G1 X94.539 Y115.961 E6.38263
G1 X94.539 Y104.039 E6.75792
G1 X138.461 Y104.039 E8.14054
G1 X138.461 Y115.901 E8.51394
M204 S800
G1 X138.868 Y116.368 F45000.000
M204 S1000
G1 F4800
G1 X94.132 Y116.368 E9.92220
G1 X94.132 Y103.632 E10.32312
G1 X138.868 Y103.632 E11.73137
G1 X138.868 Y116.308 E12.13040
M204 S800
G1 X139.275 Y116.775 F45000.000
M204 S1000
G1 F1920
G1 X93.725 Y116.775 E13.56429
G1 X93.725 Y103.225 E13.99083
G1 X139.275 Y103.225 E15.42472
G1 X139.275 Y116.715 E15.84938
M204 S800
G1 X138.877 Y116.737 F45000.000
G1 X137.513 Y115.839
G1 F2400
G1 X138.156 Y115.196 E15.87806
G1 X138.156 Y114.619 E15.89630
G1 X137.119 Y115.656 E15.94259
G1 X136.541 Y115.656 E15.96082
G1 X138.156 Y114.041 E16.03290
G1 X138.156 Y113.464 E16.05113
G1 X135.964 Y115.656 E16.14900
G1 X135.387 Y115.656 E16.16723
G1 X138.156 Y112.887 E16.29088
G1 X138.156 Y112.309 E16.30912
G1 X134.809 Y115.656 E16.45855
G1 X134.232 Y115.656 E16.47679
G1 X138.156 Y111.732 E16.65201
G1 X138.156 Y111.154 E16.67025
G1 X133.654 Y115.656 E16.87126
G1 X133.077 Y115.656 E16.88949
G1 X138.156 Y110.577 E17.11629
G1 X138.156 Y109.999 E17.13452
G1 X132.499 Y115.656 E17.38711
G1 X131.922 Y115.656 E17.40534
G1 X138.156 Y109.422 E17.68371
G1 X138.156 Y108.844 E17.70194
G1 X131.344 Y115.656 E18.00610
G1 X130.767 Y115.656 E18.02433
G1 X138.156 Y108.267 E18.35428
G1 X138.156 Y107.689 E18.37251
G1 X130.189 Y115.656 E18.72824
G1 X129.612 Y115.656 E18.74648
G1 X138.156 Y107.112 E19.12799
G1 X138.156 Y106.534 E19.14623
G1 X129.034 Y115.656 E19.55353
G1 X128.457 Y115.656 E19.57176
G1 X138.156 Y105.957 E20.00485
G1 X138.156 Y105.380 E20.02309
G1 X127.880 Y115.656 E20.48196
G1 X127.302 Y115.656 E20.50020
G1 X138.156 Y104.802 E20.98486
G1 X138.156 Y104.344 E20.99931
G1 X138.036 Y104.344 E21.00309
G1 X126.725 Y115.656 E21.50819
G1 X126.147 Y115.656 E21.52642
G1 X137.458 Y104.344 E22.03152
G1 X136.881 Y104.344 E22.04975
G1 X125.570 Y115.656 E22.55485
G1 X124.992 Y115.656 E22.57309
G1 X136.303 Y104.344 E23.07818
G1 X135.726 Y104.344 E23.09642
G1 X124.415 Y115.656 E23.60151
G1 X123.837 Y115.656 E23.61975
G1 X135.148 Y104.344 E24.12484
G1 X134.571 Y104.344 E24.14308
G1 X123.260 Y115.656 E24.64817
G1 X122.682 Y115.656 E24.66641
G1 X133.993 Y104.344 E25.17150
G1 X133.416 Y104.344 E25.18974
G1 X122.105 Y115.656 E25.69484
G1 X121.527 Y115.656 E25.71307
G1 X132.839 Y104.344 E26.21817
G1 X132.261 Y104.344 E26.23640
G1 X120.950 Y115.656 E26.74150
G1 X120.373 Y115.656 E26.75973
G1 X131.684 Y104.344 E27.26483
G1 X131.106 Y104.344 E27.28306
G1 X119.795 Y115.656 E27.78816
G1 X119.218 Y115.656 E27.80639
G1 X130.529 Y104.344 E28.31149
G1 X129.951 Y104.344 E28.32972
G1 X118.640 Y115.656 E28.83482
G1 X118.063 Y115.656 E28.85305
G1 X129.374 Y104.344 E29.35815
G1 X128.796 Y104.344 E29.37638
G1 X117.485 Y115.656 E29.88148
G1 X116.908 Y115.656 E29.89971
G1 X128.219 Y104.344 E30.40481
G1 X127.641 Y104.344 E30.42304
G1 X116.330 Y115.656 E30.92814
G1 X115.753 Y115.656 E30.94637
G1 X127.064 Y104.344 E31.45147
G1 X126.486 Y104.344 E31.46971
G1 X115.175 Y115.656 E31.97480
G1 X114.598 Y115.656 E31.99304
G1 X125.909 Y104.344 E32.49813
G1 X125.332 Y104.344 E32.51637
G1 X114.020 Y115.656 E33.02146
G1 X113.443 Y115.656 E33.03970
G1 X124.754 Y104.344 E33.54479
G1 X124.177 Y104.344 E33.56303
G1 X112.866 Y115.656 E34.06812
G1 X112.288 Y115.656 E34.08636
G1 X123.599 Y104.344 E34.59146
G1 X123.022 Y104.344 E34.60969
G1 X111.711 Y115.656 E35.11479
G1 X111.133 Y115.656 E35.13302
G1 X122.444 Y104.344 E35.63812
G1 X121.867 Y104.344 E35.65635
G1 X110.556 Y115.656 E36.16145
G1 X109.978 Y115.656 E36.17968
G1 X121.289 Y104.344 E36.68478
G1 X120.712 Y104.344 E36.70301
G1 X109.401 Y115.656 E37.20811
G1 X108.823 Y115.656 E37.22634
G1 X120.134 Y104.344 E37.73144
G1 X119.557 Y104.344 E37.74967
G1 X108.246 Y115.656 E38.25477
G1 X107.668 Y115.656 E38.27300
G1 X118.979 Y104.344 E38.77810
G1 X118.402 Y104.344 E38.79633
G1 X107.091 Y115.656 E39.30143
G1 X106.513 Y115.656 E39.31966
G1 X117.825 Y104.344 E39.82476
G1 X117.247 Y104.344 E39.84299
G1 X105.936 Y115.656 E40.34809
G1 X105.359 Y115.656 E40.36633
G1 X116.670 Y104.344 E40.87142
G1 X116.092 Y104.344 E40.88966
G1 X104.781 Y115.656 E41.39475
G1 X104.204 Y115.656 E41.41299
G1 X115.515 Y104.344 E41.91808
G1 X114.937 Y104.344 E41.93632
G1 X103.626 Y115.656 E42.44141
G1 X103.049 Y115.656 E42.45965
G1 X114.360 Y104.344 E42.96474
G1 X113.782 Y104.344 E42.98298
G1 X102.471 Y115.656 E43.48808
G1 X101.894 Y115.656 E43.50631
G1 X113.205 Y104.344 E44.01141
G1 X112.627 Y104.344 E44.02964
G1 X101.316 Y115.656 E44.53474
G1 X100.739 Y115.656 E44.55297
G1 X112.050 Y104.344 E45.05807
G1 X111.472 Y104.344 E45.07630
G1 X100.161 Y115.656 E45.58140
G1 X99.584 Y115.656 E45.59963
G1 X110.895 Y104.344 E46.10473
G1 X110.318 Y104.344 E46.12296
G1 X99.006 Y115.656 E46.62806
